images/keycard-logo.svg

<svg width="157" height="66" viewBox="0 0 157 66" fill="none" xmlns="http://www.w3.org/2000/svg">
<g clip-path="url(#clip0)">
<path d="M25.721 56.1077L19.0401 46.4512L17.0359 48.7821V56.1077H11.0231V22.3103H17.0359V41.29H17.37L24.719 32.6327H31.7339L23.0487 42.6221L32.235 56.1077H25.721Z" fill="#09D9B9"/>
<path d="M42.591 56.4394C40.2529 56.4394 38.2486 55.9399 36.5783 54.9411C34.9081 53.9422 33.5721 52.6101 32.5699 50.7789C31.5678 48.9475 31.2337 46.9496 31.2337 44.4521C31.2337 42.1214 31.7348 39.957 32.5699 38.1256C33.405 36.2942 34.741 34.7958 36.4113 33.7969C38.0816 32.7979 40.0859 32.132 42.4242 32.132C44.4283 32.132 46.2656 32.6314 47.7688 33.4639C49.4391 34.2963 50.6083 35.6283 51.6102 37.2932C52.6124 38.9581 52.9464 41.1224 52.9464 43.6198V46.117H37.0794C37.2464 47.7819 37.9145 49.2803 38.7497 50.2794C39.7518 51.2782 40.921 51.7778 42.7581 51.7778C44.0943 51.7778 45.2634 51.4447 45.9316 50.7789C46.5997 50.1129 47.1007 49.4468 47.4348 48.448L52.7794 49.9464C52.4453 50.9452 51.9443 52.1108 51.1091 53.1096C50.2742 54.1087 49.2721 54.9411 47.7688 55.6071C46.2656 56.1064 44.5953 56.4394 42.591 56.4394ZM42.2572 37.1267C40.921 37.1267 39.7518 37.626 38.9167 38.4586C38.0815 39.2909 37.4135 40.4565 37.0794 42.1214H47.2678C47.2678 40.7895 46.7667 39.624 45.9316 38.6251C44.9294 37.626 43.7602 37.1267 42.2572 37.1267Z" fill="#09D9B9"/>
<path d="M61.1293 57.1053L61.6304 55.9397L53.1123 32.6312H59.2921L64.4698 48.1148H64.8039L69.9815 32.6312H76.1612L66.1399 59.6025C65.8058 60.4351 65.3048 61.4339 64.6369 62.2665C63.9688 63.0988 63.1336 63.9314 62.1315 64.4307C61.1293 64.9302 59.7931 65.2633 58.2899 65.2633C57.6218 65.2633 57.1207 65.2633 56.4528 65.0968C55.7847 64.9302 55.4507 64.7637 54.9496 64.5972L56.2858 59.9356C57.7888 60.2686 58.791 60.2686 59.4591 59.769C59.9602 59.436 60.6283 58.4372 61.1293 57.1053Z" fill="#09D9B9"/>
<path d="M97.0392 40.1233L91.5276 40.9557C91.1935 39.7903 90.6924 38.9579 90.0243 38.2919C89.3562 37.6259 88.3541 37.293 87.0179 37.293C85.1806 37.293 84.0116 37.9589 83.0095 39.2908C82.1743 40.6228 81.6733 42.2877 81.6733 44.452C81.6733 46.6164 82.1743 48.4478 83.0095 49.7797C83.8446 51.1115 85.1806 51.7776 87.0179 51.7776C88.1871 51.7776 89.1892 51.4446 89.8573 50.7787C90.5254 50.1127 91.1935 49.2801 91.3605 48.2813L96.8722 49.1138C96.3711 51.2781 95.2019 53.1095 93.5317 54.6078C91.6946 55.9397 89.5233 56.7723 86.8509 56.7723C84.5127 56.7723 82.6754 56.2727 81.0052 55.2739C79.3349 54.2748 78.1657 52.7764 77.1636 50.945C76.3286 49.1138 75.8276 46.9494 75.8276 44.6185C75.8276 42.2877 76.3286 40.1233 77.1636 38.2919C77.9987 36.4605 79.3349 35.1286 81.0052 34.1297C82.6754 33.1307 84.5127 32.6312 86.8509 32.6312C89.5233 32.6312 91.6946 33.2972 93.5317 34.7956C95.536 35.7946 96.7052 37.7924 97.0392 40.1233Z" fill="#09D9B9"/>
<path d="M112.573 56.1062V53.4425H112.239C111.905 54.1085 111.236 54.9409 110.234 55.6069C109.232 56.2727 107.896 56.6058 106.226 56.6058C104.889 56.6058 103.553 56.2727 102.384 55.7734C101.215 55.2739 100.38 54.4413 99.5448 53.4425C98.8767 52.4436 98.5427 51.1115 98.5427 49.6132C98.5427 47.2824 99.3778 45.6175 101.048 44.452C102.718 43.2866 105.056 42.6205 108.063 42.2877C108.731 42.2877 109.399 42.1212 110.067 42.1212C110.735 42.1212 111.236 41.9547 111.737 41.7882C112.072 41.6217 112.406 41.2887 112.406 40.9557V40.6228C112.406 39.6238 112.072 38.7914 111.403 38.1254C110.735 37.6259 109.9 37.293 108.898 37.293C107.729 37.293 106.894 37.6259 106.059 38.1254C105.223 38.6249 104.889 39.2908 104.556 40.1233L99.0437 39.2908C99.5448 37.1265 100.714 35.4616 102.551 34.2961C104.389 33.1307 106.56 32.6312 109.065 32.6312C110.568 32.6312 112.072 32.9642 113.575 33.4637C114.911 33.9632 116.08 34.7956 117.082 35.961C117.917 37.1265 118.418 38.7914 118.418 40.6228V56.4392H112.573V56.1062ZM112.239 48.2813V45.118C112.072 45.2845 111.737 45.451 111.403 45.6175C110.902 45.784 110.401 45.784 109.9 45.9503C109.399 46.1168 108.898 46.1169 108.564 46.1169C107.228 46.2834 106.059 46.6164 105.391 47.1159C104.723 47.6152 104.389 48.4478 104.389 49.4466C104.389 50.2792 104.723 50.945 105.223 51.4446C105.892 51.9441 106.56 52.1106 107.562 52.1106C108.898 52.1106 109.9 51.7776 110.902 50.945C111.905 50.1127 112.239 49.2801 112.239 48.2813Z" fill="#09D9B9"/>
<path d="M136.456 33.1318L134.619 38.293C134.452 38.1265 134.118 38.1265 133.784 37.96C133.449 37.7935 132.948 37.7935 132.447 37.7935C131.445 37.7935 130.61 37.96 129.942 38.4593C129.274 38.9588 128.606 39.6249 128.272 40.2907C127.938 41.1233 127.604 41.9556 127.604 42.7882V56.1073H121.591V32.6323H127.437V35.9621H127.771C128.105 34.7967 128.773 33.7976 129.775 33.2983C130.777 32.6323 131.946 32.2993 133.115 32.2993C133.783 32.2993 134.285 32.2993 134.953 32.4658C135.621 32.6323 136.122 32.7988 136.456 33.1318Z" fill="#09D9B9"/>
<path d="M157.001 56.1072H151.155V53.2769H150.821C150.487 54.1092 149.819 54.7753 148.817 55.4411C147.815 56.1072 146.645 56.4402 144.975 56.4402C143.138 56.4402 141.635 55.9406 140.298 55.1083C138.962 54.1092 137.793 52.7774 136.958 50.946C136.123 49.1145 135.789 46.9501 135.789 44.2864C135.789 41.6226 136.29 39.4582 137.125 37.6268C137.96 35.7954 139.129 34.4635 140.465 33.631C141.969 32.7986 143.472 32.2991 145.142 32.2991C146.645 32.2991 147.982 32.6321 148.984 33.2981C149.986 33.964 150.654 34.63 150.988 35.4624H151.155V24.8071H157.001V56.1072ZM141.301 44.2864C141.301 46.4508 141.802 48.2822 142.637 49.6141C143.472 50.946 144.808 51.612 146.645 51.612C147.815 51.612 148.817 51.279 149.652 50.6129C150.32 49.9471 150.988 49.1146 151.322 47.9492C151.656 46.7838 151.823 45.6182 151.823 44.2864C151.823 42.2885 151.489 40.457 150.654 39.1252C149.819 37.7933 148.649 37.1273 146.812 37.1273C144.975 37.1273 143.806 37.7933 142.804 39.1252C141.802 40.457 141.301 42.1219 141.301 44.2864Z" fill="#09D9B9"/>
<path d="M13.8628 27.8037C6.1798 27.8037 0 21.4772 0 13.8186C0 6.16012 6.1798 0 13.8628 0C21.5457 0 27.7256 6.16012 27.7256 13.8186C27.8927 21.4772 21.5457 27.8037 13.8628 27.8037ZM13.8628 5.49416C9.18618 5.49416 5.5117 9.32342 5.5117 13.8186C5.5117 18.4804 9.35321 22.1432 13.8628 22.1432C18.5394 22.1432 22.2138 18.3139 22.2138 13.8186C22.3808 9.32342 18.5394 5.49416 13.8628 5.49416Z" fill="#09D9B9"/>
</g>
<defs>
<clipPath id="clip0">
<rect width="157" height="66" fill="white"/>
</clipPath>
</defs>
</svg>

<svg width="157" height="66" fill="none" xmlns="http://www.w3.org/2000/svg"><g clip-path="url(#clip0)" fill="#09D9B9"><path d="M25.721 56.108l-6.68-9.657-2.005 2.331v7.326h-6.013V22.31h6.013v18.98h.334l7.349-8.657h7.015l-8.685 9.99 9.186 13.485h-6.514z"/><path d="M42.591 56.44c-2.338 0-4.342-.5-6.013-1.499a10.71 10.71 0 0 1-4.008-4.162c-1.002-1.832-1.336-3.83-1.336-6.327 0-2.33.5-4.495 1.336-6.326a9.704 9.704 0 0 1 3.841-4.33 11.563 11.563 0 0 1 6.013-1.664c2.004 0 3.842.5 5.345 1.332 1.67.832 2.84 2.164 3.841 3.83 1.002 1.664 1.336 3.828 1.336 6.326v2.497H37.08c.167 1.665.835 3.163 1.67 4.162 1.003 1 2.172 1.499 4.01 1.499 1.335 0 2.504-.333 3.173-1 .668-.665 1.169-1.331 1.503-2.33l5.344 1.498c-.334 1-.835 2.165-1.67 3.164-.835.999-1.837 1.831-3.34 2.497-1.503.5-3.174.832-5.178.832zm-.334-19.313c-1.336 0-2.505.499-3.34 1.332-.836.832-1.504 1.997-1.838 3.662h10.189c0-1.332-.501-2.497-1.336-3.496-1.003-.999-2.172-1.498-3.675-1.498zM61.13 57.105l.5-1.165-8.518-23.309h6.18l5.178 15.484h.334L69.98 32.63h6.18L66.14 59.602c-.334.833-.835 1.832-1.503 2.665-.668.832-1.503 1.664-2.505 2.164-1.003.5-2.339.832-3.842.832-.668 0-1.17 0-1.837-.166-.668-.167-1.002-.333-1.503-.5l1.336-4.661c1.503.333 2.505.333 3.173-.167.501-.333 1.17-1.332 1.67-2.664zm35.91-16.982l-5.512.833c-.335-1.166-.836-1.998-1.504-2.664-.668-.666-1.67-.999-3.006-.999-1.837 0-3.006.666-4.008 1.998-.836 1.332-1.337 2.997-1.337 5.161 0 2.164.501 3.996 1.337 5.328.835 1.331 2.17 1.998 4.008 1.998 1.17 0 2.171-.333 2.84-1 .667-.665 1.335-1.498 1.502-2.497l5.512.833c-.5 2.164-1.67 3.995-3.34 5.494-1.837 1.332-4.009 2.164-6.681 2.164-2.338 0-4.176-.5-5.846-1.498-1.67-1-2.84-2.498-3.841-4.329-.835-1.831-1.336-3.996-1.336-6.327 0-2.33.5-4.495 1.336-6.326.835-1.831 2.17-3.163 3.841-4.162 1.67-1 3.508-1.499 5.846-1.499 2.672 0 4.844.666 6.68 2.165 2.005.999 3.174 2.996 3.508 5.327zm15.533 15.983v-2.663h-.334c-.334.666-1.003 1.498-2.005 2.164-1.002.666-2.338.999-4.008.999-1.337 0-2.673-.333-3.842-.833-1.169-.5-2.004-1.332-2.84-2.33-.667-1-1.001-2.331-1.001-3.83 0-2.33.835-3.995 2.505-5.161 1.67-1.165 4.008-1.831 7.015-2.164.668 0 1.336-.167 2.004-.167.668 0 1.169-.166 1.67-.333.335-.166.669-.5.669-.832v-.333c0-1-.334-1.832-1.003-2.498a4.11 4.11 0 0 0-2.505-.832c-1.169 0-2.004.333-2.839.832-.836.5-1.17 1.166-1.503 1.998l-5.512-.832c.5-2.164 1.67-3.83 3.507-4.995 1.838-1.165 4.009-1.665 6.514-1.665 1.503 0 3.007.333 4.51.833 1.336.5 2.505 1.332 3.507 2.497.835 1.166 1.336 2.83 1.336 4.662v15.816h-5.845v-.333zm-.334-7.825v-3.163c-.167.166-.502.333-.836.5-.501.166-1.002.166-1.503.332-.501.167-1.002.167-1.336.167-1.336.166-2.505.5-3.173.999-.668.5-1.002 1.332-1.002 2.33 0 .833.334 1.499.834 1.999.669.5 1.337.666 2.339.666 1.336 0 2.338-.333 3.34-1.166 1.003-.832 1.337-1.665 1.337-2.664zm24.217-15.149l-1.837 5.161c-.167-.166-.501-.166-.835-.333-.335-.166-.836-.166-1.337-.166-1.002 0-1.837.166-2.505.665-.668.5-1.336 1.166-1.67 1.832-.334.832-.668 1.665-.668 2.497v13.32h-6.013V32.631h5.846v3.33h.334c.334-1.165 1.002-2.164 2.004-2.664a6.035 6.035 0 0 1 3.34-.999c.668 0 1.17 0 1.838.167.668.166 1.169.333 1.503.666zm20.545 22.975h-5.846v-2.83h-.334c-.334.832-1.002 1.498-2.004 2.164-1.002.666-2.172 1-3.842 1-1.837 0-3.34-.5-4.677-1.333a10.556 10.556 0 0 1-3.34-4.162c-.835-1.831-1.169-3.996-1.169-6.66 0-2.663.501-4.828 1.336-6.66.835-1.83 2.004-3.162 3.34-3.995 1.504-.832 3.007-1.332 4.677-1.332 1.503 0 2.84.333 3.842 1 1.002.665 1.67 1.331 2.004 2.163h.167V24.807h5.846v31.3zm-15.7-11.82c0 2.164.501 3.995 1.336 5.327.835 1.332 2.171 1.998 4.008 1.998 1.17 0 2.172-.333 3.007-1 .668-.665 1.336-1.497 1.67-2.663a12.94 12.94 0 0 0 .501-3.663c0-1.998-.334-3.829-1.169-5.16-.835-1.333-2.005-1.999-3.842-1.999-1.837 0-3.006.666-4.008 1.998-1.002 1.332-1.503 2.997-1.503 5.161zM13.863 27.804C6.18 27.804 0 21.477 0 13.819 0 6.16 6.18 0 13.863 0s13.863 6.16 13.863 13.819c.167 7.658-6.18 13.985-13.863 13.985zm0-22.31c-4.677 0-8.351 3.83-8.351 8.325 0 4.661 3.841 8.324 8.35 8.324 4.677 0 8.352-3.83 8.352-8.324.167-4.496-3.675-8.325-8.351-8.325z"/></g><defs><clipPath id="clip0"><path fill="#fff" d="M0 0h157v66H0z"/></clipPath></defs></svg>
